X:17
T:Julia Delaney
M:C|
R:reel
C:Traditional
K:Ddor
dcAG (3FFF DF | (3(EFE) CE FEDc | dcAG (3FFF DF | Addc defe |
dcAG (3FFF DF | (3(EFE) CE FEDc | dcAG (3FFF DF |[1 Add^c d2 A2 :|[2 Add^c d2 e2 |
|: (3fff fe fagf | ecgc acgc | fede fagf | edce d2 e2 |
(3fff fe fagf | ecgc acgc | fedc AGFG |[1 Add^c d2 e2 :|[2 Add^c d2 A2 |]

